X: 1
T: The Scotsman Over The Border
R: jig
M: 6/8
L: 1/8
K: Dmix
|: DED FDF | AFA d2A | {c}BAB BAB |dgf edB |
ADD FDF | AFA d2A | ~B3 AFA | dAF E3 :|
|: dfa afa | bag fef | dfa afe | def edB |
dfa afa | bag fed | B2B AFA |dAF E3 :|


Tune 548	Setting 13510

